resources/dark/preview.svg

<svg width="16" height="16" fill="none" xmlns="http://www.w3.org/2000/svg"><path fill-rule="evenodd" clip-rule="evenodd" d="M2 2h12l1 1v10l-1 1H2l-1-1V3l1-1zm0 11h12V3H2v10zm11-9H3v3h10V4zm-1 2H4V5h8v1zm-3 6h4V8H9v4zm1-3h2v2h-2V9zM7 8H3v1h4V8zm-4 3h4v1H3v-1z" fill="#C5C5C5"/></svg>

<svg width="16" height="16" viewBox="0 0 16 16" fill="none" xmlns="http://www.w3.org/2000/svg">
<path fill-rule="evenodd" clip-rule="evenodd" d="M2 2H14L15 3V13L14 14H2L1 13V3L2 2ZM2 13H14V3H2V13ZM13 4H3V7H13V4ZM12 6H4V5H12V6ZM9 12H13V8H9V12ZM10 9H12V11H10V9ZM7 8H3V9H7V8ZM3 11H7V12H3V11Z" fill="#C5C5C5"/>
</svg>
